X:54
T:Reel du r\'epertoire d'Isidore Soucy
M:4/4
L:1/8
K:D
|: defg afde | f2fg f2e2 | defg afdf | eece d3A ::
B2B2 g2B2 | AffA f2ed | cdef gece |1 defd A3A :|2 dfec d3B |:
b2Bb- bBb2 | a4 a2d2 | cdef gece |1 defg a2B2 :|2 dfec d4 |]

